X:1
T:TRAMWAY
T:TRAMWAY
T:L. GOBBAERTS, op:37
T:GALOP BRILLANT à 4 Mains
T:Scritto con MuseScore, un software libero e gratuito: http://musescore.org/it
T:Scritto con MuseScore, un software libero e gratuito: http://musescore.org/it
T:Scritto con MuseScore, un software libero e gratuito: http://musescore.org/it
T:Scritto con MuseScore, un software libero e gratuito: http://musescore.org/it
T:Scritto con MuseScore, un software libero e gratuito: http://musescore.org/it
T:Scritto con MuseScore, un software libero e gratuito: http://musescore.org/it
T:Scritto con MuseScore, un software libero e gratuito: http://musescore.org/it
T:Scritto con MuseScore, un software libero e gratuito: http://musescore.org/it
C:L. GOBBAERTS, op:37
Z:GALOP BRILLANT à 4 Mains
Z:Scritto con MuseScore, un software libero e gratuito: http://musescore.org/it
%%score { 1 | 2 } { ( 3 5 ) | 4 }
L:1/8
Q:1/4=120
M:2/4
K:C
V:1 bass nm="Piano"
V:2 bass 
V:3 treble nm="Piano"
V:5 treble 
V:4 treble 
V:1
"^Allegro vivace"!ff! G,z/G,/ G, z | ((!>![G,-^A,^CE]2 [G,B,D])) z | G,z/G,/ G,z/G,/ | %3
 (!>!G,2 G,) z | !>![G,B,DF]2- [G,B,DF] z | ((!>![G,-CE]2 [G,CE])) z | !>![G,B,D]z/G,/ G,z/G,/ | %7
G,z/G,/ G,z/G,/ | G,4- | G, z z2 | z!f! [G,CE] z [G,CE] | z [G,CE] z [G,CE] | z [A,CD] z [A,CD] | %13
 z [A,CD] z [A,CD] | z [G,B,F] z [G,B,F] | z [G,B,F] z [G,B,F] | z [G,CE][G,CE][G,CE] | %17
 z [G,CE][G,CE][G,CE] | z [G,CE] z [G,CE] | z [G,CE] z [G,CE] | z [G,CD] z [G,CD] | %21
 z [A,CD] z [A,CD] | z [G,B,F] z [G,B,F] | z [G,B,F] z [G,B,F] | z [G,CE][G,CE][G,CE] | %25
 [G,CE] z z2 ||!p! z [D,G,B,] z [D,G,B,] | z [D,G,B,] z [D,G,B,] | z [D,^F,C] z [D,F,C] | %29
 (!^!_E,2 D,) z | z [D,^F,C] z [D,F,C] | (!^!_E,2 D,) z | z [D,G,B,][D,G,B,][D,G,B,] | %33
 z [D,G,B,][D,G,B,][D,G,B,] | z [D,G,B,] z [D,G,B,] | z"_cresc." [D,G,B,] z [D,G,B,] | %36
 z [E,A,C][E,A,C][E,A,C] | z [E,A,C][E,A,C][E,A,C] | [G,B,D] z [G,B,D] z | [G,B,D] z [G,B,D] z | %40
 [^F,CD] z [F,CD] z | [G,B,D] z z3/2 G,/ |!ff! G, z z3/2 G,/ | G, z z3/2 G,/ | G,4- | G, z z2 | %46
!f! [G,CE] z [G,CE] z | [G,CE] z [G,CE] z | [A,CD] z [A,CD] z | [A,CD] z [A,CD] z | %50
 z [G,B,F] z [G,B,F] | z [G,B,F] z [G,B,F] | z [F,CE][F,CE][F,CE] | z [F,CE][F,CE][F,CE] | %54
 z [G,CE] z [G,CE] | z [G,CE] z [G,CE] | [A,CD] z [A,CD] z | [A,CD] z [A,CD] z | %58
 z [G,B,F] z [G,B,F] | z [G,B,F] z [G,B,F] | z [F,CE][F,CE][F,CE] | [G,CE] z z2 || %62
[K:F] z [G,B,F][G,B,F][G,B,F] | z [G,B,F][G,B,F][G,B,F] | z [B,CE][B,CE][B,CE] | %65
 z [B,CE][B,CE][B,CE] | z [B,CE][B,CE][B,CE] | z [B,CE][B,CE][B,CE] | z [A,CF][A,CF][A,CF] | %69
 z [A,CF][A,CF][A,CF] | z [A,CF][A,CF][A,CF] | z [A,CF][A,CF][A,CF] | %72
 z"_cresc." [G,CE][G,CE][G,CE] | z [G,CE][G,CE][G,CE] | z [G,=B,DF][G,B,DF][G,B,DF] | %75
 z [G,=B,DF][G,B,DF][G,B,DF] |!f! .[G,CE] z .C z | !^!C,4 |!p! z [A,CF][A,CF][A,CF] | %79
 z [A,CF][A,CF][A,CF] | z [B,CE][B,CE][B,CE] | z [B,CE][B,CE][B,CE] | z [B,CE][B,CE][B,CE] | %83
 z [B,CE][B,CE][B,CE] | z [G,B,F][G,B,F][G,B,F] | z [G,B,F][G,B,F][G,B,F] | %86
 z [G,B,F][G,B,F][G,B,F] | z [G,B,F][G,B,F][G,B,F] | z [B,CE][B,CE][B,CE] | z [B,CE][B,CE][B,CE] | %90
 z"_cresc." [B,CE][B,CE][B,CE] | z [G,B,F][G,B,F][G,B,F] |!f! z [B,CE][B,CE][B,CE] | [A,CF] z z2 || %94
[K:C]!ff! G,z/G,/ G, z | ((!>![G,-^A,^CE]2 [G,B,D])) z | G,z/G,/ G,z/G,/ | (!>!G,2 G,) z | %98
 !>![G,B,DF]2- [G,B,DF] z | ((!>![G,-CE]2 [G,CE])) z | !>![G,B,D]z/G,/ G,z/G,/ | G,z/G,/ G,z/G,/ | %102
 G,4- | G, z z2 | z [G,CE] z [G,CE] | z [G,CE] z [G,CE] | [A,CD] z [A,CD] z | [A,CD] z [A,CD] z | %108
 z [G,B,F] z [G,B,F] | z [G,B,F] z [G,B,F] | z [G,CE][G,CE][G,CE] | z [G,CE][G,CE][G,CE] | %112
 [G,CE] z [G,CE] z | z [G,CE] z [G,CE] | z [A,CD] z [A,CD] | z [A,CD] z [A,CD] | %116
 z [G,B,F] z [G,B,F] | z [G,B,F] z [G,B,F] | z [G,CE][G,CE][G,CE] | [G,CE] z z2 || %120
!p! z [D,G,B,] z [D,G,B,] | z [D,G,B,] z [D,G,B,] | z [D,^F,C] z [D,F,C] | (!^!_E,2 D,) z | %124
 z [D,^F,C] z [D,F,C] | (!^!_E,2 D,) z | z [D,G,B,][D,G,B,][D,G,B,] | z [D,G,B,][D,G,B,][D,G,B,] | %128
[K:C] z!p! [D,G,B,] z [D,G,B,] | z"_cresc." [D,G,B,] z [D,G,B,] | z [E,A,C][E,A,C][E,A,C] | %131
 z [E,A,C][E,A,C][E,A,C] | [G,B,D] z [G,B,D] z | [G,B,D] z [G,B,D] z | z [^F,CD] z [F,CD] | %135
 [G,B,D] z z3/2 G,/ | G, z z3/2 G,/ | G, z z3/2 G,/ | G,4- | G, z z2 |!f! z [G,CE] z [G,CE] | %141
 z [G,CE] z [G,CE] | z [A,CD] z [A,CD] | z [A,CD] z [A,CD] | z [G,B,F] z [G,B,F] | %145
 z [G,B,F] z [G,B,F] | z [G,CE][G,CE][G,CE] | z [G,CE][G,CE][G,CE] | [G,CE] z [G,CE] z | %149
 [G,CE] z [G,CE] z | z [A,CD] z [A,CD] | z [A,CD] z [A,CD] | z [G,B,F] z [G,B,F] | %153
 z [G,B,F] z [G,B,F] | z [G,CE][G,CE][G,CE] | [G,CE] .G,.^F,.G, | ._A, z (((!>![G,B,DF]2 | %157
 [G,CE]))) .G,.^F,.G, | ._A, z ((((!>![G,B,DF]2 | [G,B,DF])))) z ((((!>![G,B,DF]2 | %160
 [G,B,DF])))) z ((((!>![G,B,DF]2 | [G,B,DF])))) z !>![G,B,DF] z | !>![G,CE] z!ff! z C/C/ | CCCC | %164
 C3 C/C/ | CCCC | !fermata!C4 |] %167
V:2
 [G,,,G,,]z/[G,,,G,,]/ [G,,,G,,] z | [G,,,G,,]2- [G,,,G,,] z | %2
 [G,,,G,,]z/[G,,,G,,]/ [G,,,G,,]z/[G,,,G,,]/ | !>![G,,,G,,]2- [G,,,G,,] z | %4
 !>![G,,,G,,]2- [G,,,G,,] z | !>![G,,,G,,]2- [G,,,G,,] z | [G,,,G,,]z/G,,/ G,,z/G,,/ | %7
 G,,z/G,,/ G,,z/G,,/ | G,,4- | G,, z z2 | .C,, z .C,, z | .G,, z .C,, z | G,, z D, z | F, z D, z | %14
 G,, z F,, z | G,, z G,, z | [C,,C,] z z z | [C,,C,] z z z | .C,, z .E,, z | .G,, z .C,, z | %20
 G,, z D, z | F, z D, z | G,, z G,, z | G,, z G,, z | [C,,C,] z z z | [C,,C,] z z2 || G,, z D,, z | %27
 G,, z D,, z | G,, z D,, z | (_E,, z D,,) z | A,, z D,, z | (_E,, z D,,) z | G,, z z2 | G,, z z2 | %34
 G,, z D,, z | G,, z D,, z | C, z z2 | C, z z2 | [D,,D,] z [D,,D,] z | [D,,D,] z [D,,D,] z | %40
 [D,,D,] z [D,,D,] z | [G,,,G,,] z z3/2 [G,,,G,,]/ | [G,,,G,,] z z3/2 [G,,,G,,]/ | %43
 [G,,,G,,] z z3/2 [G,,,G,,]/ | [G,,,G,,]4- | [G,,,G,,] z z2 | !^!C,, z !^!E,, z | %47
 !^!G,, z !^!C,, z | F,, z D, z | F, z D, z | G,, z G,, z | G,, z G,, z | [C,,C,] z z2 | %53
 [C,,C,] z z2 | !^!C,, z !^!E,, z | !^!G,, z !^!C,, z | F,, z D, z | F, z D, z | G,, z G,, z | %59
 G,, z G,, z | [C,,C,] z z2 | [C,,C,] z z2 ||[K:F] [F,,F,] z z2 | [F,,F,] z z2 | [G,,G,] z z2 | %65
 [C,,C,] z z2 | [G,,G,] z z2 | [C,,C,] z z2 | [F,,F,] z z2 | [F,,F,] z z2 | [F,,F,] z z2 | %71
 [F,,F,] z z2 | G,, z z2 | G,, z z2 | [G,,,G,,] z z2 | [G,,,G,,] z z2 | [C,,C,] z !^![C,,C,] z | %77
 !^![C,,,C,,]4 | [F,,F,] z z2 | [F,,F,] z z2 | [G,,G,] z z2 | [C,,C,] z z2 | [G,,G,] z z2 | %83
 [C,,C,] z z2 | [F,,F,] z z2 | [F,,F,] z z2 | [F,,F,] z z2 | [F,,F,] z z2 | [G,,G,] z z2 | %89
 [G,,G,] z z2 | [C,,C,] z z2 | [F,,F,] z z2 | !>![C,,A,,]4 | [F,,F,] z z2 || %94
[K:C] [G,,,G,,]z/[G,,,G,,]/ [G,,,G,,] z | [G,,,G,,]2- [G,,,G,,] z | %96
 [G,,,G,,]z/[G,,,G,,]/ [G,,,G,,]z/[G,,,G,,]/ | [G,,,G,,]2- [G,,,G,,] z | %98
 !>![G,,,G,,]2- [G,,,G,,] z | !>![G,,,G,,]2- [G,,,G,,] z | [G,,,G,,]z/G,,/ G,,z/G,,/ | %101
 G,,z/G,,/ G,,z/G,,/ | G,,4- | G,, z z2 | .C,, z .C,, z | .G,, z .C,, z | F,, z D, z | F, z D, z | %108
 G,, z G,, z | G,, z G,, z | [C,,C,] z z2 | [C,,C,] z z2 | .C,, z .C,, z | .G,, z .C,, z | %114
 G,, z D, z | F, z D, z | G,, z G,, z | G,, z G,, z | [C,,C,] z z2 | [C,,C,] z z2 || G,, z D,, z | %121
 G,, z D,, z | G,, z D,, z | (_E,, z D,,) z | A,, z D,, z | (_E,, z D,,) z | G,, z z2 | G,, z z2 | %128
[K:C] G,, z D,, z | G,, z D,, z | C, z z2 | C, z z2 | [D,,D,] z [D,,D,] z | [D,,D,] z [D,,D,] z | %134
 [D,,D,] z [D,,D,] z | [G,,,G,,] z z3/2 [G,,,G,,]/ | [G,,,G,,] z z3/2 [G,,,G,,]/ | %137
 [G,,,G,,] z z3/2 [G,,,G,,]/ | [G,,,G,,]4- | [G,,,G,,] z z2 | .C,, z .E,, z | .G,, z .C,, z | %142
 G,, z D, z | F, z D, z | G,, z G,, z | G,, z G,, z | [C,,C,] z z2 | [C,,C,] z z2 | .C,, z .C,, z | %149
 .C,, z .C,, z | F,, z D, z | F, z D, z | G,, z G,, z | G,, z G,, z | [C,,C,] z z2 | %155
 [C,,C,] .[G,,,G,,].[^F,,,^F,,].[G,,,G,,] | [_A,,,_A,,] z ((!>![G,,,G,,]2 | %157
 .[C,,C,])) .[G,,,G,,].[^F,,,^F,,].[G,,,G,,] | [_A,,,_A,,] z !>![G,,,G,,]2- | %159
 [G,,,G,,] z !>![G,,,G,,]2- | [G,,,G,,] z !>![G,,,G,,]2- | [G,,,G,,] z !>![G,,,G,,] z | %162
 [C,,C,] z z C,/C,/ | C,C,C,C, | C,3 [C,,C,]/[C,,C,]/ | [C,,C,][C,,C,][C,,C,][C,,C,] | %166
 !fermata![E,,C,]4 |] %167
V:3
!ff!!ff! ^gz/=g/ gz/g/ | (((!>![^ga^c'e']2 [gbd']))) z | gz/g/ gz/g/ | %3
!8va(! (((!>![c'_e'_g'b']2 [c'e'g'a']))) z | (((!>![d'f'c'']2 [d'f'd'']))) z | %5
 (!>![e'-g'-d'']2 .[e'g'c'']) z | [g'b'd''g''] z/ g'/ g'z/g'/ | g'z/g'/ g'z/g'/ | g'4!8va)! | %9
 G/4A/4B/4c/4d/4e/4"_glissando"f/4g/4a/4b/4c'/4!8va(!d''/4(7:4:7e'/4f'/4g'/4a'/4b'/4c''/4d''/4!8va)! | %10
!f!!f!!8va(! e'' z d'' z | c'' (3(g'/a'/g'/) .^f'.g' | b' z a' z | (3(g'/a'/g'/)^c' .d'.e' | %14
 g' z f' z | (3(g'/a'/g'/) z (3(g'/a'/g'/) z | .[e'g'].[^d'^f'] !>![e'g']2 | z .g'.^f'.g' | %18
 e'' z d'' z | c'' (3(g'/a'/g'/) .^f'.g' | b' z a' z | (3(g'/a'/g'/)^c' d'e' | g' z f' z | %23
 [g'e''] z [f'd''] z | [e'c''] z (3(c'/e'/g'/(3c''/e''/g''/ | c'')!8va)! z z2 || %26
!8va(! d'/b/g/ z/ d'/b/g/ z/ | ^f'/b/g/ z/ g'/b/g/ z/ | g'/b/g/ z/ ^f'/b/g/ z/ |!f!!f! z4 | %30
 g'/b/g/ z/ ^f'/b/g/!8va)! z/ |!f!!f! z4 |!8va(! a'/d'/b/ z/ g'/d'/b/ z/ | ^f'/b/g/ z/ e'/b/g/ z/ | %34
!p!!p! d'/b/g/ z/ e'/b/g/ z/ | ^f'/b/g/ z/ g'/b/g/ z/ | ^f'/b/g/ z/ e'/b/g/ z/ | (!>!b'2 a') z | %38
!ff!!ff! a'/a'/a'/ z/ g'/g'/g'/ z/ | ^f'/f'/f'/ z/ e'/e'/e'/ z/!8va)! | %40
 _e'/e'/e'/ z/ d'/d'/d'/ z/ | g z z3/2 g/ |!ff!!ff! g z z3/2 [gg']/ | [gg'] z z3/2 g/ | g4 | %45
 G/4A/4B/4c/4d/4e/4"_glissando"f/4g/4a/4b/4c'/4!8va(!d''/4(7:4:7e'/4f'/4g'/4a'/4b'/4c''/4d''/4 | %46
 e''!f!!f! z d'' z | c'' (3(g'/a'/g'/) .^f'.g' | b' z a' z | (3(g'/a'/g'/)^c' .d'.e' | g' z f' z | %51
!ff!!ff! (b'/g'/b'/) z/ (a'/f'/a'/) z/ | .[e'g'].[^d'^f'] !>![e'g']2 | z .g' .^f'.g' | %54
 e'' z d'' z | c'' (3(g'/a'/g'/) .^f'.g' | b' z a' z | (3(g'/a'/g'/)^c' d'e' | g' z f' z | %59
 [g'e''] z [f'd''] z | [e'c'']!8va)! z (3(c/e/g/(3c'/e'/g'/ | c') z z2 ||[K:F]!8va(! z .c''f''.a' | %63
 .c''.f'.a'.c' | (3(g'/a'/g'/)e' .e'.d'' | c''4!8va)! | (3(f/g/f/)d .d.c' | c'4 | %68
 (3(f/g/f/)d .d.c' | f4 |!8va(! z .c''f''.a' | .c''.f'.a'.c' | %72
"_cresc.""_cresc." (3(g'/a'/g'/)e' .e'.d'' | c''4 | (3(f'/g'/f'/)=d' .d'.c'' | c''4!8va)! | %76
({c'd')} c' z({cd)} c z | z4 |!p!!p! z!8va(! .c''f''.a' | .c''.f'.a'.c' | (3(f'/g'/f'/)e' .e'.d'' | %81
 c''4!8va)! | (3(f/g/f/)e .e.c' | c'4 | (3d/e/d/c .c.a | g4 | z!8va(! .c''.f''.a' | .c''.f'.a'.c' | %88
 (3(g'/a'/g'/)e' .e'.d'' | c''4!8va)! |"_cresc." (3(d'/e'/d'/)c' .a'.e' | (3(g'/a'/g'/)f' .e'.d' | %92
!f!!f! .c'.^c'.d'.e' | .f' z z2 ||[K:C]!ff!!ff! gz/g/ gz/g/ | (((!>![^ga^c'e']2 [gbd']))) z | %96
"^PRIMA" gz/g/ gz/g/ |!8va(! (((!>![c'_e'_g'b']2 [c'e'g'a']))) z | %98
 (((!>![d'f'c'']2 [d'f'd'']))) z | (!>![e'-g'-d'']2 .[e'g'c'']) z | [g'b'd''g''] z/ g'/ g'z/g'/ | %101
 g'z/g'/ g'z/g'/ | g'4!8va)! | %103
 G/4A/4B/4c/4d/4e/4"_glissando"f/4g/4a/4b/4c'/4!8va(!d''/4(7:4:7e'/4f'/4g'/4a'/4b'/4c''/4d''/4 | %104
!f!!f! e'' z d'' z | c'' (3(g'/a'/g'/) .^f'.g' | b' z a' z | (3(g'/a'/g'/)^c' .d'.e' | g' z f' z | %109
 (b'/a'/b'/) z/ (b'/a'/b'/) z/ | .[e'g'].[^d'^f'] !>![e'g']2 | z .g'.^f'.g' | e'' z d'' z | %113
 c'' (3(g'/a'/g'/) .^f'.g' | b' z a' z | (3(g'/a'/g'/)^c' d'e' | g' z f' z | [g'e''] z [f'd''] z | %118
 [e'c'']!8va)! z (3(c/e/g/(3c'/e'/g'/ |!8va(! c'') z z2!8va)! || (d'/b/g/) z/ (e'/b/g/) z/ | %121
 (^f'/b/g/) z/ (g'/b/g/) z/ | (d'/b/g/) z/ (^f'/b/g/) z/ | z4 | (d'/b/g/) z/ (^f'/b/g/) z/ | z4 | %126
 a'/d'/b/ z/ g'/d'/b/ z/ | ^f'/b/g/ z/ e'/b/g/ z/ |[K:C]!p!!p! d'/b/g/ z/ e'/b/g/ z/ | %129
 ^f'/b/g/ z/ g'/b/g/ z/ | _g/B/G/ z/ e/B/G/ z/ |!8va(! (!>!b'2 a') z | %132
!ff!!ff! a'/a'/a'/ z/ g'/g'/g'/ z/ | ^f'/f'/f'/ z/ e'/e'/e'/ z/ | %134
 _e'/e'/e'/ z/ d'/d'/d'/ z/!8va)! | g z z3/2 g/ |!ff!!ff! g z z3/2 [gg']/ | [gg'] z z3/2 g/ | g4 | %139
 G/4A/4B/4c/4d/4e/4"_glissando"f/4g/4a/4b/4c'/4!8va(!d''/4(7:4:7e'/4f'/4g'/4a'/4b'/4c''/4d''/4 | %140
 e''!f!!f! z d'' z | c'' (3(g'/a'/g'/) .^f'.g' | b' z a' z | (3(d'/e'/d'/)^c' .d'.e' | g' z f' z | %145
 (b'/g'/b'/) z/ (a'/f'/a'/) z/ | .[e'g'].[^d'^f'] !>![e'g']2 | z .g' .^f'.g' | e'' z d'' z | %149
 c'' (3(g'/a'/g'/) .^f'.g' | b' z a' z | (3(d'/e'/d'/)^c' d'e' | g' z f' z | [g'e''] z [f'd''] z | %154
 [e'c'']!8va)! z (3(c/e/g/(3c'/e'/g'/) |!8va(! c'' z/ g'/z/^f'/z/g'/!8va)! | %156
 _a z (5:4:5g/^f/=a/^a/b/ | c' z/ g/z/^f/z/g/ | _a z (7:4:7(B/d/f/g/b/d'/f'/ | %159
 .g') z (7:4:7(B/d/f/g/b/d'/f'/ | ._a') z (6:4:6(B/d/f/b/d'/f'/ | =a) z !^![dfgb] z | %162
 !^![egc'] z!ff!!ff! z c'/c'/ | c'c'c'c' | c'3 c'/c'/ | c'c'c'c' | !fermata!c'4 |] %167
V:4
!ff!!ff! ^Gz/=G/ Gz/G/ | G2- G z | Gz/G/ Gz/G/ | !>![Gc_e]2- [Gce] z | !>![Adf]2- [Adf] z | %5
 (!>![G-c-e]2 [Gce]) z | [GBd] z/ g/ gz/g/ | gz/g/ gz/g/ | g4 | z4 | z z d' z | c'g ^fg | b z a z | %13
 d^c de | g z f z | [gb] z [gb] z | .[eg].[^d^f] !>![eg]2 | z g^fg | e' z d' z | c'g ^fg | %20
 b z a z | d^c de | g z f z | [eg] z [df] z | [ce] z z2 | z4 || z4 | z4 | z4 | (!^!_E2 D) z | z4 | %31
 (!^!_E2 D) z | z4 | z4 | z4 | z4 | z4 | (!>!b2 a) z | a z g z | ^f z e z | _e z d z | %41
 G z z3/2 G/ | G z z3/2 G/ | G z z3/2 G/ | G4 | z4 | z2 d' z | c'g^fg | b z a z | d^cde | g z f z | %51
 [gb] z [fa] z | .[eg].[^d^f] !>![eg]2 | z .g .^f.g | e' z d' z | c'g^fg | b z a z | d^c de | %58
 g z f z | [eg] z [df] z | [ce] z z2 | z4 ||[K:F] z .c'f'.a | .c'.f.a.c | (ge).e.d' | c'4 | z4 | %67
 z4 | z4 | z4 | z .c'f'.a | .c'.f.a.c | (ge).e.a | g4 | (c=B).B.a | g4 | z4 | !^!C4 | z .c'f'.a | %79
 .c'.f.a.c | (ge).e.d' | c'4 | z4 | z4 | z4 | z4 | z .c'.f'.a | .c'.f.a.c | (ge).e.d' | c'4 | %90
 !>![Bc]4 | [Ac]4 | .[Bc].[Bc].[Bc].[Bc] | .[Ac] z z2 ||[K:C]!ff!!ff! Gz/G/ Gz/G/ | G2- G z | %96
 Gz/G/ Gz/G/ | !>![Gc_e]2- [Gce] z | !>![Adf]2- [Adf] z | (!>![G-c-e]2 [Gce]) z | %100
 [GBd] z/ g/ gz/g/ | gz/g/ gz/g/ | g4 | z4 | z z d' z | c'g^fg | b z a z | d^cde | g z f z | %109
 [gb] z [gb] z | .[eg].[^d^f] !>![eg]2 | z .g.^f.g | e' z d' z | d'g ^fg | b z a z | d^c de | %116
 g z f z | [eg] z [df] z | [ce] z z2 | z4 || z4 | z4 | z4 |!f!!f! (!^!_E2 D) z | z4 | %125
!f!!f! (!^!_E2 D) z | z4 | z4 |[K:C] z4 | z4 | z4 | (!>!b2 a) z | a z g z | ^f z e z | _e z d z | %135
 G z z3/2 G/ | G z z3/2 G/ | G z z3/2 G/ | G4 | z4 | z2 d' z | c'g^fg | b z a z | d^cde | g z f z | %145
 [gb] z [fa] z | .[eg].[^d^f] !>![eg]2 | z .g .^f.g | e' z d' z | c'g^fg | b z a z | d^c de | %152
 g z f z | [eg] z [df] z | [ce] z z2 | z .G^F.G | _A z z2 | z4 | z4 | z4 | z4 | z !^![Afg] z2 | %162
 [ceg] z!<(!!<(! z!<)!!<)! c'/c'/ | c'c'c'c' | c'3 c/c/ | cccc | !fermata!c4 |] %167
V:5
 x4 | x4 | x4 |!8va(! x4 | x4 | x4 | x4 | x4 | x4!8va)! | x11/4!8va(! x79/64!8va)! |!8va(! x4 | %11
 x4 | x4 | x4 | x4 | x4 | x4 | x4 | x4 | x4 | x4 | x4 | x4 | x4 | x4 | x!8va)! x3 || %26
!8va(! d'2 d'/ x3/2 | ^f'/ x3/2 g'/ x3/2 | g'2 ^f'/ x3/2 | x4 | g'2 ^f'/ x!8va)! x/ | x4 | %32
!8va(! a'/ x3/2 g'/ x3/2 | ^f'/ x3/2 e'/ x3/2 | d'/ x3/2 e'/ x3/2 | ^f'/ x3/2 g'/ x3/2 | %36
 ^f'/ x3/2 e'/ x3/2 | x4 | x4 | x4!8va)! | x4 | x4 | x4 | x4 | x4 | x11/4!8va(! x5/4 | x4 | x4 | %48
 x4 | x4 | x4 | x4 | x4 | x4 | x4 | x4 | x4 | x4 | x4 | x4 | x!8va)! x3 | x4 ||[K:F]!8va(! x4 | %63
 x4 | x4 | x4!8va)! | x4 | x4 | x4 | x4 |!8va(! x4 | x4 | x4 | x4 | x4 | x4!8va)! | x4 | x4 | %78
 x!8va(! x3 | x4 | x4 | x4!8va)! | x4 | x4 | x4 | x4 | x!8va(! x3 | x4 | x4 | x4!8va)! | x4 | x4 | %92
 x4 | x4 ||[K:C] x4 | x4 | x4 |!8va(! x4 | x4 | x4 | x4 | x4 | x4!8va)! | x11/4!8va(! x5/4 | x4 | %105
 x4 | x4 | x4 | x4 | x4 | x4 | x4 | x4 | x4 | x4 | x4 | x4 | x4 | x!8va)! x3 |!8va(! x4!8va)! || %120
 d'/ x3/2 e'/ x3/2 | ^f'/ x3/2 g'/ x3/2 | d'/ x3/2 ^f'/ x3/2 | x4 | d'/ x3/2 ^f'/ x3/2 | x4 | %126
 a'/ x3/2 g'/ x3/2 | ^f'/ x3/2 e'/ x3/2 |[K:C] d'/ x3/2 e'/ x3/2 | ^f'/ x3/2 g'/ x3/2 | %130
 _g/ x3/2 e/ x3/2 |!8va(! x4 | x4 | x4 | x4!8va)! | x4 | x4 | x4 | x4 | x11/4!8va(! x5/4 | x4 | %141
 x4 | x4 | x4 | x4 | x4 | x4 | x4 | x4 | x4 | x4 | x4 | x4 | x4 | x!8va)! x3 |!8va(! x4!8va)! | %156
 x4 | x4 | x4 | x4 | x4 | x4 | x4 | x4 | x4 | x4 | x4 |] %167

